chrome/urlbar/permissions/geo-blocked.svg

<svg xmlns="http://www.w3.org/2000/svg" width="16" height="16" viewBox="0 0 16 16">
   <path
   style="fill:context-fill;fill-opacity:context-fill-opacity"
   d="M 0.5 0 C 0.37204 0 0.24411437 0.048849375 0.14648438 0.14648438 C -0.048785625 0.34174437 -0.048785625 0.65825563 0.14648438 0.85351562 L 2.2714844 2.9785156 C 0.34845437 5.7111456 0.60795125 9.5111786 3.0507812 11.955078 L 4.5703125 13.453125 L 6.6132812 15.439453 L 6.7460938 15.556641 C 7.5208638 16.18464 8.6568187 16.145852 9.3867188 15.439453 L 11.822266 13.068359 L 12.09375 12.800781 L 15.146484 15.853516 C 15.341784 16.048715 15.658216 16.048715 15.853516 15.853516 C 16.048715 15.658216 16.048715 15.341784 15.853516 15.146484 L 0.85351562 0.14648438 C 0.75588563 0.048849375 0.62796 0 0.5 0 z M 7.7480469 0.00390625 C 6.290048 0.056172478 4.8448806 0.56252375 3.6425781 1.5214844 L 4.3535156 2.2324219 C 6.7073156 0.42701188 10.089941 0.60069938 12.244141 2.7558594 C 14.397741 4.9103894 14.574384 8.2955901 12.771484 10.650391 L 13.480469 11.359375 C 15.66947 8.6100745 15.492518 4.5951412 12.949219 2.0507812 C 11.518275 0.6191625 9.6226168 -0.063293186 7.7480469 0.00390625 z M 2.9882812 3.6953125 L 5.2089844 5.9160156 C 5.0802244 6.2500456 5.0097656 6.6127375 5.0097656 6.9921875 C 5.0097656 8.6450375 6.34789 9.984375 8 9.984375 C 8.3797 9.984375 8.743925 9.9142562 9.078125 9.7851562 L 11.388672 12.095703 L 10.923828 12.554688 L 8.6933594 14.722656 L 8.5996094 14.802734 C 8.2453094 15.070534 7.7545706 15.070534 7.4003906 14.802734 L 7.3066406 14.722656 L 4.3261719 11.816406 L 3.7558594 11.25 L 3.5800781 11.066406 C 1.6899781 9.0114058 1.4924112 5.9585625 2.9882812 3.6953125 z M 8 4 C 7.45936 4 6.953295 4.1435413 6.515625 4.3945312 L 7.2597656 5.1386719 C 7.4889456 5.0468819 7.73805 4.9960938 8 4.9960938 C 9.1021 4.9960938 9.9960938 5.8896275 9.9960938 6.9921875 C 9.9960938 7.2539475 9.9450156 7.5033719 9.8535156 7.7324219 L 10.597656 8.4765625 C 10.848057 8.0389625 10.992187 7.5325975 10.992188 6.9921875 C 10.992188 5.3393475 9.6521 4 8 4 z " />
</svg>

<svg xmlns="http://www.w3.org/2000/svg" width="16" height="16">
  <path style="fill:context-fill;fill-opacity:context-fill-opacity" d="M.5 0a.498.498 0 0 0-.354.854l2.125 2.125a7.006 7.006 0 0 0 .78 8.976l1.52 1.498 2.042 1.986.133.118c.775.628 1.91.589 2.64-.118l2.436-2.37.272-.268 3.052 3.053a.5.5 0 0 0 .708-.708l-15-15A.498.498 0 0 0 .5 0zm7.248.004A6.975 6.975 0 0 0 3.643 1.52l.71.711a6 6 0 0 1 7.891.524 6.01 6.01 0 0 1 .527 7.894l.71.71a7.006 7.006 0 0 0-.532-9.31A6.978 6.978 0 0 0 7.748.005zm-4.76 3.691L5.21 5.916a2.99 2.99 0 0 0 3.87 3.87l2.31 2.31-.465.459-2.23 2.168-.094.08a.995.995 0 0 1-1.2 0l-.093-.08-2.98-2.907-.571-.566-.176-.184a6.01 6.01 0 0 1-.592-7.37zM8 4c-.54 0-1.047.144-1.484.395l.744.744a1.996 1.996 0 0 1 2.594 2.594l.744.744A2.992 2.992 0 0 0 8 4z"/>
</svg>
